X:1
T:Bog Man,The
M:4/4
L:1/8
R:Reel
K:Ddor
|:fedf eage|(3dded cAGE|F2DE FGAB|cA (3AAA cAGA|
fedf eage|(3dded  cAGE|F2DE FGAB|cAGE EDD2:|
|:Ad (3ddd bdad|eaag e2ed|ec (3ccc AcGc|Gced cAGc|
Ad (3ddd bdad|eaag e2eg|gaag efed|cAGE EDD2:|
